app/images/icon/price.svg

<svg width="60" height="60" viewBox="0 0 60 60" fill="none" xmlns="http://www.w3.org/2000/svg">
<path d="M57 0H19C18.2051 0.00237409 17.4434 0.319207 16.8813 0.881302C16.3192 1.4434 16.0024 2.20508 16 3V14H1C0.734784 14 0.48043 14.1054 0.292893 14.2929C0.105357 14.4804 0 14.7348 0 15V55C0 55.2652 0.105357 55.5196 0.292893 55.7071C0.48043 55.8946 0.734784 56 1 56H16V57C16.0024 57.7949 16.3192 58.5566 16.8813 59.1187C17.4434 59.6808 18.2051 59.9976 19 60H57C57.7949 59.9976 58.5566 59.6808 59.1187 59.1187C59.6808 58.5566 59.9976 57.7949 60 57V3C59.9976 2.20508 59.6808 1.4434 59.1187 0.881302C58.5566 0.319207 57.7949 0.00237409 57 0ZM4 54H2V16H4V54ZM6 54V16H28V54H6ZM58 57C58 57.2652 57.8946 57.5196 57.7071 57.7071C57.5196 57.8946 57.2652 58 57 58H19C18.7348 58 18.4804 57.8946 18.2929 57.7071C18.1054 57.5196 18 57.2652 18 57V56H29C29.2652 56 29.5196 55.8946 29.7071 55.7071C29.8946 55.5196 30 55.2652 30 55V15C30 14.7348 29.8946 14.4804 29.7071 14.2929C29.5196 14.1054 29.2652 14 29 14H18V3C18 2.73478 18.1054 2.48043 18.2929 2.29289C18.4804 2.10536 18.7348 2 19 2H57C57.2652 2 57.5196 2.10536 57.7071 2.29289C57.8946 2.48043 58 2.73478 58 3V57Z" fill="#0037A1"/>
<path d="M53.192 38.1509C53.0045 37.9635 52.7501 37.8582 52.485 37.8582C52.2198 37.8582 51.9655 37.9635 51.778 38.1509L44 45.9289L40.464 42.3939C40.2765 42.2065 40.0221 42.1012 39.757 42.1012C39.4918 42.1012 39.2375 42.2065 39.05 42.3939L36.222 45.2219C36.0345 45.4095 35.9292 45.6638 35.9292 45.9289C35.9292 46.1941 36.0345 46.4484 36.222 46.6359L43.293 53.7069C43.4805 53.8944 43.7348 53.9997 44 53.9997C44.2651 53.9997 44.5195 53.8944 44.707 53.7069L56.021 42.3939C56.114 42.3011 56.1877 42.1908 56.238 42.0694C56.2884 41.948 56.3143 41.8179 56.3143 41.6864C56.3143 41.555 56.2884 41.4249 56.238 41.3035C56.1877 41.1821 56.114 41.0718 56.021 40.9789L53.192 38.1509ZM44 51.5859L38.343 45.9289L39.757 44.5149L43.293 48.0499C43.4805 48.2374 43.7348 48.3427 44 48.3427C44.2651 48.3427 44.5195 48.2374 44.707 48.0499L52.485 40.2719L53.9 41.6869L44 51.5859Z" fill="#E93123"/>
<path d="M54 11V7C54 6.73478 53.8946 6.48043 53.7071 6.29289C53.5196 6.10536 53.2652 6 53 6H23C22.7348 6 22.4804 6.10536 22.2929 6.29289C22.1054 6.48043 22 6.73478 22 7V11C22 11.2652 22.1054 11.5196 22.2929 11.7071C22.4804 11.8946 22.7348 12 23 12H53C53.2652 12 53.5196 11.8946 53.7071 11.7071C53.8946 11.5196 54 11.2652 54 11ZM52 10H24V8H52V10Z" fill="#0037A1"/>
<path d="M36 16H40V18H36V16Z" fill="#0037A1"/>
<path d="M42 16H54V18H42V16Z" fill="#0037A1"/>
<path d="M36 22H40V24H36V22Z" fill="#0037A1"/>
<path d="M42 22H54V24H42V22Z" fill="#0037A1"/>
<path d="M36 28H40V30H36V28Z" fill="#0037A1"/>
<path d="M42 28H54V30H42V28Z" fill="#0037A1"/>
<path d="M36 34H40V36H36V34Z" fill="#0037A1"/>
<path d="M42 34H54V36H42V34Z" fill="#0037A1"/>
<path d="M17 30C16.0111 30 15.0444 30.2932 14.2222 30.8427C13.3999 31.3921 12.759 32.173 12.3806 33.0866C12.0022 34.0002 11.9031 35.0055 12.0961 35.9755C12.289 36.9454 12.7652 37.8363 13.4645 38.5355C14.1637 39.2348 15.0546 39.711 16.0246 39.9039C16.9945 40.0969 17.9998 39.9978 18.9134 39.6194C19.8271 39.241 20.6079 38.6001 21.1574 37.7779C21.7068 36.9556 22 35.9889 22 35C21.9984 33.6744 21.4711 32.4036 20.5338 31.4662C19.5964 30.5289 18.3256 30.0016 17 30ZM17 38C16.4067 38 15.8266 37.8241 15.3333 37.4944C14.8399 37.1648 14.4554 36.6962 14.2284 36.148C14.0013 35.5999 13.9419 34.9967 14.0576 34.4147C14.1734 33.8328 14.4591 33.2982 14.8787 32.8787C15.2982 32.4591 15.8328 32.1734 16.4147 32.0576C16.9967 31.9419 17.5999 32.0013 18.1481 32.2284C18.6962 32.4554 19.1648 32.8399 19.4944 33.3333C19.8241 33.8266 20 34.4067 20 35C20 35.7956 19.6839 36.5587 19.1213 37.1213C18.5587 37.6839 17.7957 38 17 38Z" fill="#E93123"/>
<path d="M25 22C24.2051 21.9976 23.4434 21.6808 22.8813 21.1187C22.3192 20.5566 22.0024 19.7949 22 19C22 18.7348 21.8946 18.4804 21.7071 18.2929C21.5196 18.1054 21.2652 18 21 18H13C12.7348 18 12.4804 18.1054 12.2929 18.2929C12.1054 18.4804 12 18.7348 12 19C11.9976 19.7949 11.6808 20.5566 11.1187 21.1187C10.5566 21.6808 9.79492 21.9976 9 22C8.73478 22 8.48043 22.1054 8.29289 22.2929C8.10536 22.4804 8 22.7348 8 23V47C8 47.2652 8.10536 47.5196 8.29289 47.7071C8.48043 47.8946 8.73478 48 9 48C9.79492 48.0024 10.5566 48.3192 11.1187 48.8813C11.6808 49.4434 11.9976 50.2051 12 51C12 51.2652 12.1054 51.5196 12.2929 51.7071C12.4804 51.8946 12.7348 52 13 52H21C21.2652 52 21.5196 51.8946 21.7071 51.7071C21.8946 51.5196 22 51.2652 22 51C22.0024 50.2051 22.3192 49.4434 22.8813 48.8813C23.4434 48.3192 24.2051 48.0024 25 48C25.2652 48 25.5196 47.8946 25.7071 47.7071C25.8946 47.5196 26 47.2652 26 47V23C26 22.7348 25.8946 22.4804 25.7071 22.2929C25.5196 22.1054 25.2652 22 25 22ZM24 46.1C23.0397 46.2972 22.1583 46.7718 21.465 47.465C20.7718 48.1583 20.2972 49.0396 20.1 50H13.9C13.7028 49.0396 13.2282 48.1583 12.535 47.465C11.8417 46.7718 10.9603 46.2972 10 46.1V23.9C10.9603 23.7028 11.8417 23.2282 12.535 22.535C13.2282 21.8417 13.7028 20.9603 13.9 20H20.1C20.2972 20.9603 20.7718 21.8417 21.465 22.535C22.1583 23.2282 23.0397 23.7028 24 23.9V46.1Z" fill="#E93123"/>
</svg>

<svg width="60" height="60" fill="none" xmlns="http://www.w3.org/2000/svg">
    <path d="M57 0H19a3.009 3.009 0 0 0-3 3v11H1a1 1 0 0 0-1 1v40a1 1 0 0 0 1 1h15v1a3.01 3.01 0 0 0 3 3h38a3.01 3.01 0 0 0 3-3V3a3.01 3.01 0 0 0-3-3ZM4 54H2V16h2v38Zm2 0V16h22v38H6Zm52 3a1 1 0 0 1-1 1H19a1 1 0 0 1-1-1v-1h11a1 1 0 0 0 1-1V15a1 1 0 0 0-1-1H18V3a1 1 0 0 1 1-1h38a1 1 0 0 1 1 1v54Z" fill="#0037A1"/>
    <path d="M53.192 38.15a1 1 0 0 0-1.414 0L44 45.93l-3.536-3.535a1 1 0 0 0-1.414 0l-2.828 2.828a1 1 0 0 0 0 1.414l7.071 7.07a1 1 0 0 0 1.414 0l11.314-11.312a.998.998 0 0 0 0-1.415l-2.829-2.828ZM44 51.587l-5.657-5.657 1.414-1.414 3.536 3.535a1 1 0 0 0 1.414 0l7.778-7.778 1.415 1.415-9.9 9.899Z" fill="#E93123"/>
    <path d="M54 11V7a1 1 0 0 0-1-1H23a1 1 0 0 0-1 1v4a1 1 0 0 0 1 1h30a1 1 0 0 0 1-1Zm-2-1H24V8h28v2ZM36 16h4v2h-4v-2ZM42 16h12v2H42v-2ZM36 22h4v2h-4v-2ZM42 22h12v2H42v-2ZM36 28h4v2h-4v-2ZM42 28h12v2H42v-2ZM36 34h4v2h-4v-2ZM42 34h12v2H42v-2Z" fill="#0037A1"/>
    <path d="M17 30a4.999 4.999 0 1 0 0 9.998A4.999 4.999 0 0 0 17 30Zm0 8a3 3 0 1 1 0-5.999A3 3 0 0 1 17 38Z" fill="#E93123"/>
    <path d="M25 22a3.01 3.01 0 0 1-3-3 1 1 0 0 0-1-1h-8a1 1 0 0 0-1 1 3.01 3.01 0 0 1-3 3 1 1 0 0 0-1 1v24a1 1 0 0 0 1 1 3.01 3.01 0 0 1 3 3 1 1 0 0 0 1 1h8a1 1 0 0 0 1-1 3.01 3.01 0 0 1 3-3 1 1 0 0 0 1-1V23a1 1 0 0 0-1-1Zm-1 24.1a5.01 5.01 0 0 0-3.9 3.9h-6.2a5.01 5.01 0 0 0-3.9-3.9V23.9a5.01 5.01 0 0 0 3.9-3.9h6.2a5.01 5.01 0 0 0 3.9 3.9v22.2Z" fill="#E93123"/>
</svg>
